X: 1
T: The Farting Badger
R: jig
M: 6/8
L: 1/8
K: Gmaj
|:~G3 BdB|~G3 BdB|c2a fdB|A/B/cB AFD|
~G3 BdB|~G3 BdB|c2a fdB|1 cAF GED:|2 cAF G2D||
~G3 EGD|GBe dBA|~G3 EGD|edB AEF|
~G3 EGD|GBe dBA|GBd edB|AEE E2F|
~G3 EGD|GBe dBA|~G3 EGD|edB AEF|
~G3 EGD|GBe def|gdB cBA|BGG GED||

